X:1
T:Title
%%score 1 { 2 | 3 }
L:1/8
Q:1/4=110
M:4/4
K:Bb
V:1 treble nm="Grand Piano, Soprano"
V:2 bass nm="Choir Pad, Bass"
V:3 bass 
V:1
 [DB][Ec] [Fd]2 [Fd]2 [Ge]2 | [Fd]2 [Ec]2 [EB]2 [EG]2- | [EG]2 [EA]2 [EA]2 [EG]2 | %3
w: By~Robert~Lowry * * * *|||
 [EF]2 [DF]4 [DB]2 | [DB][Ec] [Fd]2 [Fd]2 [Ge]2 | [Fd]2 [Ec]2 [EB]2 [EG]2- | %6
w: |||
 [EG]2 [DF]2 [FB]2 [EB]2 | [EA]2 [DB]6 | [DB]>[Ec] [Fd]4 [DB]2 | [Fc]>[Fd] [Fe]4 [Fc]2 | %10
w: ||||
 [Fc]>[Fd] [Fe]2 [Fd]2 [Ec]2 | [DB]2 [EA]2 [DB]2 [Fc]2 | [FB]>[Fc] [Fd]4 [DB]2 | %13
w: |||
 [FB]>[FA] [EG]4 [Ge]2 | [Gc]>[Gc] [FB]2 [FB]2 [FA]2 | [Fc]2 [FB]6- | [FB]2 z2 z4 |] %17
w: ||||
V:2
 B,2 B,2 B,2 B,2 | B,2 G,2 G,2 B,2- | B,2 F,2 C2 B,2 | A,2 B,4 F,2 | B,2 B,2 B,2 B,2 | %5
 B,2 G,2 G,2 B,2- | B,2 B,2[K:treble] D2 C2 | C2 B,6 | B,>[K:bass]B, B,4 B,2 | A,>B, C4 A,2 | %10
 A,>B, C2 B,2 A,2 | B,2 C2 B,2 A,2 | B,>B, B,4 F,2 | B,>B, B,4 B,2 | E>E D2 D2 C2 | E2 D6- | %16
 D2 z2 z4 |] %17
V:3
 B,,2 B,,2 B,,2 B,,2 | B,,2 E,2 E,2 E,2- | E,2 z2 F,2 F,2 | F,2 B,,4 B,,2 | B,,2 B,,2 B,,2 B,,2 | %5
 B,,2 E,2 E,2 E,2- | E,2 F,2 F,2 F,2 | F,2 B,,6 | B,,>B,, B,,4 B,,2 | F,>F, F,4 F,2 | %10
 F,>F, F,2 F,2 F,2 | F,2 F,2 F,2 F,E, | D,>D, B,,4 B,,2 | D,>D, E,4 E,2 | E,>E, F,2 F,2 F,2 | %15
 F,2 B,,6- | B,,2 z2 z4 |] %17

